libs/icons/src/svg/sequences.svg

<svg width="16" height="16" viewBox="0 0 16 16" fill="none" xmlns="http://www.w3.org/2000/svg">
<path fill-rule="evenodd" clip-rule="evenodd" d="M4.64365 0.662068C4.64365 0.296418 4.94007 0 5.30572 0H10.6023C10.9679 0 11.2643 0.296418 11.2643 0.662068C11.2643 1.02772 10.9679 1.32414 10.6023 1.32414H5.30572C4.94007 1.32414 4.64365 1.02772 4.64365 0.662068ZM3.31952 2.64827C2.95387 2.64827 2.65745 2.94469 2.65745 3.31034C2.65745 3.67599 2.95387 3.97241 3.31952 3.97241H12.5885C12.9541 3.97241 13.2505 3.67599 13.2505 3.31034C13.2505 2.94469 12.9541 2.64827 12.5885 2.64827H3.31952ZM2.98848 4.96553C2.54722 4.96553 2.14629 5.1382 1.84957 5.41967C1.84449 5.42437 1.83947 5.42919 1.83453 5.43411C1.52536 5.73483 1.33331 6.15534 1.33331 6.6207V14.3448C1.33331 15.259 2.07436 16 2.98848 16H12.9195C13.8336 16 14.5747 15.259 14.5747 14.3448V6.6207C14.5747 5.70658 13.8336 4.96553 12.9195 4.96553H2.98848ZM2.43676 14.3448V6.76435L7.58287 11.4427C7.79331 11.634 8.1147 11.634 8.32514 11.4427L13.4712 6.76441V14.3448C13.4712 14.6495 13.2242 14.8966 12.9195 14.8966H2.98848C2.68377 14.8966 2.43676 14.6495 2.43676 14.3448ZM3.31224 6.06898H12.5958L7.95401 10.2888L3.31224 6.06898Z" fill="#202327"/>
</svg>

<svg xmlns="http://www.w3.org/2000/svg" viewBox="0 0 16 16" class="sageicon"><path fill-rule="evenodd" d="M4.644.662c0-.366.296-.662.662-.662h5.296a.662.662 0 0 1 0 1.324H5.306a.662.662 0 0 1-.662-.662ZM3.32 2.648a.662.662 0 0 0 0 1.324h9.268a.662.662 0 1 0 0-1.324H3.32Zm-.331 2.318a1.65 1.65 0 0 0-1.154.468c-.31.3-.502.721-.502 1.187v7.724c0 .914.741 1.655 1.656 1.655h9.93c.915 0 1.656-.741 1.656-1.655V6.62c0-.914-.741-1.655-1.655-1.655H2.989Zm-.552 9.379v-7.58l5.146 4.678c.21.191.532.191.742 0l5.146-4.679v7.58a.552.552 0 0 1-.552.553H2.99a.552.552 0 0 1-.552-.552Zm.875-8.276h9.284l-4.642 4.22-4.642-4.22Z"/></svg>
